static/assets/template/assets/img/icons/essential/detailed/Image_File.svg

<svg height="149" viewBox="0 0 116 149" width="116" xmlns="http://www.w3.org/2000/svg"><g fill="none" fill-rule="evenodd" transform="translate(2 2)"><path d="m111.1 35.9 1.2 102.4c0 3.5-2.8 6.3-6.3 6.3h-99.6c-3.5 0-6.3-2.8-6.3-6.3v-131.7c0-3.5 2.8-6.3 6.3-6.3h72.2z" fill-rule="nonzero"/><path d="m111.2 36.5 1.1 102.1c0 3.3-2.7 5.9-5.9 5.9h-94.5c-3.3 0-5.9-2.7-5.9-5.9v-127c0-3.3 2.7-5.9 5.9-5.9h72z" fill-rule="nonzero"/><path d="m27.678555 85.455974h10.3999v10.299901h-10.3999z" fill-rule="nonzero" transform="matrix(.70710678 -.70710678 .70710678 .70710678 -54.438173 49.786475)"/><path d="m65.981754 66.95262h13.299873v12.49988h-13.299873z" fill-rule="nonzero" transform="matrix(.70710678 -.70710678 .70710678 .70710678 -30.488697 72.798894)"/><path d="m78.7.5v28.2c0 3.9 3.5 7.2 7.3 7.2h25.1" fill-rule="nonzero"/><path d="m82.2 3.3v25.7c0 3.5 3.1 6.6 6.7 6.6h22.8" fill-rule="nonzero"/><path d="m82.2 8.5v25.7c0 3.5 3.1 6.6 6.7 6.6h22.8v-5.2" fill-rule="nonzero"/><g stroke-linecap="round" stroke-linejoin="round" stroke-width="3"><path d="m78.7 22.5v6.2c0 3.9 3.5 7.2 7.3 7.2h25.1"/><path d="m78.7.5v15.2"/><path d="m.2 34.1v-1.5"/><path d="m.2 25.4v-18.7c0-3.5 2.8-6.3 6.3-6.3h72.2l32.5 35.5 1.2 102.4c0 3.5-2.8 6.3-6.3 6.3h-99.6c-3.5 0-6.3-2.8-6.3-6.3v-88.7"/><path d="m27.3 92.6 4.8 4.8 6.7-6.8"/><path d="m67.6 77.6 5.3 5.3 8.2-8.2"/><path d="m30.2 84.2 1.9-1.9 22.6 22.6"/><path d="m14.7 99.6 10.1-10"/><path d="m71.2 65.8 1.7-1.7 31.7 31.8"/><path d="m68.2 68.8.1-.1"/><path d="m47.7 89.3 15.6-15.6"/></g><g transform="translate(24 45)"><circle cx="10" cy="10.1" fill-rule="nonzero" r="9.2"/><circle cx="11.6" cy="11.6" fill-rule="nonzero" r="7.7"/><g stroke-linecap="round" stroke-linejoin="round" stroke-width="3"><path d="m3.7 3.5c.1-.1.3-.2.4-.4"/><path d="m10 .9c5.1 0 9.2 4.1 9.2 9.2s-4.1 9.2-9.2 9.2-9.2-4.1-9.2-9.2"/></g></g></g></svg>

<?xml version="1.0" encoding="UTF-8"?>
<svg width="116px" height="149px" viewBox="0 0 116 149" version="1.1" xmlns="http://www.w3.org/2000/svg" xmlns:xlink="http://www.w3.org/1999/xlink">
    <!-- Generator: Sketch 51.2 (57519) - http://www.bohemiancoding.com/sketch -->
    <title>Image_File</title>
    <desc>Created with Sketch.</desc>
    <defs></defs>
    <g id="Page-1" stroke="none" stroke-width="1" fill="none" fill-rule="evenodd">
        <g id="Image_File" transform="translate(2.000000, 2.000000)">
            <path d="M111.1,35.9 L112.3,138.3 C112.3,141.8 109.5,144.6 106,144.6 L6.4,144.6 C2.9,144.6 0.1,141.8 0.1,138.3 L0.1,6.6 C0.1,3.1 2.9,0.3 6.4,0.3 L78.6,0.3 L111.1,35.9 Z" id="Shape" class="fill-neutral" fill-rule="nonzero"></path>
            <path d="M111.2,36.5 L112.3,138.6 C112.3,141.9 109.6,144.5 106.4,144.5 L11.9,144.5 C8.6,144.5 6,141.8 6,138.6 L6,11.6 C6,8.3 8.7,5.7 11.9,5.7 L83.9,5.7 L111.2,36.5 Z" id="Shape" class="fill-primary-100" fill-rule="nonzero"></path>
            <rect id="Rectangle-path" class="fill-neutral" fill-rule="nonzero" transform="translate(32.878505, 90.605925) rotate(-45.000000) translate(-32.878505, -90.605925) " x="27.6785549" y="85.4559744" width="10.3999003" height="10.2999012"></rect>
            <rect id="Rectangle-path" class="fill-neutral" fill-rule="nonzero" transform="translate(72.631690, 73.202560) rotate(-45.000000) translate(-72.631690, -73.202560) " x="65.9817538" y="66.9526199" width="13.2998725" height="12.4998801"></rect>
            <path d="M78.7,0.5 L78.7,28.7 C78.7,32.6 82.2,35.9 86,35.9 L111.1,35.9" id="Shape" class="fill-neutral" fill-rule="nonzero"></path>
            <path d="M82.2,3.3 L82.2,29 C82.2,32.5 85.3,35.6 88.9,35.6 L111.7,35.6" id="Shape" class="fill-primary-300" fill-rule="nonzero"></path>
            <path d="M82.2,8.5 L82.2,34.2 C82.2,37.7 85.3,40.8 88.9,40.8 L111.7,40.8 L111.7,35.6" id="Shape" class="fill-primary-300" fill-rule="nonzero"></path>
            <path d="M78.7,22.5 L78.7,28.7 C78.7,32.6 82.2,35.9 86,35.9 L111.1,35.9" id="Shape" class="stroke-primary" stroke-width="3" stroke-linecap="round" stroke-linejoin="round"></path>
            <path d="M78.7,0.5 L78.7,15.7" id="Shape" class="stroke-primary" stroke-width="3" stroke-linecap="round" stroke-linejoin="round"></path>
            <path d="M0.2,34.1 L0.2,32.6" id="Shape" class="stroke-primary" stroke-width="3" stroke-linecap="round" stroke-linejoin="round"></path>
            <path d="M0.2,25.4 L0.2,6.7 C0.2,3.2 3,0.4 6.5,0.4 L78.7,0.4 L111.2,35.9 L112.4,138.3 C112.4,141.8 109.6,144.6 106.1,144.6 L6.5,144.6 C3,144.6 0.2,141.8 0.2,138.3 L0.2,49.6" id="Shape" class="stroke-primary" stroke-width="3" stroke-linecap="round" stroke-linejoin="round"></path>
            <polyline id="Shape" class="stroke-primary-300" stroke-width="3" stroke-linecap="round" stroke-linejoin="round" points="27.3 92.6 32.1 97.4 38.8 90.6"></polyline>
            <polyline id="Shape" class="stroke-primary-300" stroke-width="3" stroke-linecap="round" stroke-linejoin="round" points="67.6 77.6 72.9 82.9 81.1 74.7"></polyline>
            <polyline id="Shape" class="stroke-primary" stroke-width="3" stroke-linecap="round" stroke-linejoin="round" points="30.2 84.2 32.1 82.3 54.7 104.9"></polyline>
            <path d="M14.7,99.6 L24.8,89.6" id="Shape" class="stroke-primary" stroke-width="3" stroke-linecap="round" stroke-linejoin="round"></path>
            <polyline id="Shape" class="stroke-primary" stroke-width="3" stroke-linecap="round" stroke-linejoin="round" points="71.2 65.8 72.9 64.1 104.6 95.9"></polyline>
            <path d="M68.2,68.8 L68.3,68.7" id="Shape" class="stroke-primary" stroke-width="3" stroke-linecap="round" stroke-linejoin="round"></path>
            <path d="M47.7,89.3 L63.3,73.7" id="Shape" class="stroke-primary" stroke-width="3" stroke-linecap="round" stroke-linejoin="round"></path>
            <g id="Group" transform="translate(24.000000, 45.000000)">
                <circle id="Oval" class="fill-neutral" fill-rule="nonzero" cx="10" cy="10.1" r="9.2"></circle>
                <circle id="Oval" class="fill-primary-300" fill-rule="nonzero" cx="11.6" cy="11.6" r="7.7"></circle>
                <path d="M3.7,3.5 C3.8,3.4 4,3.3 4.1,3.1" id="Shape" class="stroke-primary" stroke-width="3" stroke-linecap="round" stroke-linejoin="round"></path>
                <path d="M10,0.9 C15.1,0.9 19.2,5 19.2,10.1 C19.2,15.2 15.1,19.3 10,19.3 C4.9,19.3 0.8,15.2 0.8,10.1" id="Shape" class="stroke-primary" stroke-width="3" stroke-linecap="round" stroke-linejoin="round"></path>
            </g>
        </g>
    </g>
</svg>
